X:1
T:Title
%%score { ( 1 3 ) | ( 2 4 ) }
L:1/8
M:4/4
K:Ab
V:1 treble nm="Grand Piano"
V:3 treble 
V:2 bass 
V:4 bass 
V:1
 z4 z2[Q:1/4=106] [CE]2 | [CA]2 [CA]2 [CA]>[CG] [CA]>[DB] | c2 B2 B2 E2 | %3
 B2 [GB]2 [GB]>[_G=A] [=GB]>[Ac] | [Bd]2 c2 c2 E2 | c2 c2 c>B c>d | [Fe]2 [Fd]2 [Fd]2 [Fd]2 | %7
 c3 A c2 B2 |[M:3/4] [A,CA]6 |[M:1/4] c>d |[M:4/4] e6 z2 |[M:3/4] A6 |[M:1/4] z B | %13
[M:4/4] c2 c2 c>c B>c | e2 c2 [EGB]2 c>d | e6 z2 |[M:9/8] f6- f z z | %17
[M:4/4] [Ec][Ae][Ae][Ae] [Ge][Gd][Gc][GB] |[M:3/4] A6 |] %19
V:2
 z4 z2 [A,,A,]2 | [A,,E,]2 [A,,E,]2 [A,,A,]>[A,,A,] [A,,A,]>[A,,A,] | %2
 [E,A,E]2 [E,G,E]2 [E,G,E]2 [E,G,]2 | [E,G,E]2 [E,B,]2 [E,E]>[E,E] [E,E]>[E,E] | %4
 [G,E]2 [A,EA]2 [A,EA]2 [A,C]2 | [A,EA]2 [A,EA]2 [A,E_G]>[A,EG] [A,EG]>[A,CG] | %6
 [D,D]2 [D,D]2 [D,D]2 [D,A,]2 | [E,A,E]3 [E,A,C] [E,A,E]2 [E,G,D]2 |[M:3/4] A,,6 | %9
[M:1/4][K:treble] A>B |[M:4/4] c6 z2 |[M:3/4] C6[K:bass] |[M:1/4] C z | %13
[M:4/4][K:treble] [A,EA]2 [A,EA]2 [A,EA]>[A,EA] [A,DA]>[A,EA] | [A,CA]2 [A,EA]2 E,2 A>B | c6 z2 | %16
[M:9/8] A2[K:bass] [D,D]- [D,D]/[D,D]/ [D,D]2- [D,D][D,D][D,D] | %17
[M:4/4] [E,A,][E,C][E,C][E,C] [E,B,][E,B,][E,E][E,D] |[M:3/4] [A,C]2 [A,D]>[A,D] [A,,A,]2 |] %19
V:3
 x8 | x8 | x8 | x8 | x8 | x8 | x8 | x8 |[M:3/4] x6 |[M:1/4] x2 |[M:4/4] z2 E>E E2 c>B | %11
[M:3/4] z2 A,>A, A,2 |[M:1/4] A2 |[M:4/4] x8 | x8 | z2 E>E E2 c>A | %16
[M:9/8] z2 A- A/A/ A2- A[FA][FB] |[M:4/4] x8 |[M:3/4] z2 F>F [CE]2 |] %19
V:4
 x8 | x8 | x8 | x8 | x8 | x8 | x8 | x8 |[M:3/4] x6 |[M:1/4][K:treble] x2 | %10
[M:4/4] z2 A,>A, A,2 E>D |[M:3/4] z2[K:bass] A,,>A,, A,,2 |[M:1/4] A,-[A,D] |[M:4/4][K:treble] x8 | %14
 x8 | z2 A,>A, A,2 A2 |[M:9/8] x2[K:bass] x7 |[M:4/4] x8 |[M:3/4] x6 |] %19

